X: 1
T: Get Up Early
M: 6/8
L: 1/8
R: jig
K: Gmin
D2 G GFG | AcA d2 =e | fed cAF | BGE AFD |
D2 G GFG | AcA d2 =e | fed cAF | GAF G2 G :|
g2 d g2 d | gab ag=e | f2 c f2 d | fga gf=e |
[1 g2 d g2 d | gab a2 g | fed cAF | GAF G2 G :|
[2 gab fga | =efg d2 e | fed cAF | GAF G2 G||
